svg/l/UG.svg

<svg width="32" height="24" viewBox="0 0 32 24" fill="none" xmlns="http://www.w3.org/2000/svg">
<g clip-path="url(#clip0_270_67519)">
<rect width="32" height="24" fill="white"/>
<path fill-rule="evenodd" clip-rule="evenodd" d="M0 0V24H32V0H0Z" fill="#FECA00"/>
<mask id="mask0_270_67519" style="mask-type:luminance" maskUnits="userSpaceOnUse" x="0" y="0" width="32" height="24">
<path fill-rule="evenodd" clip-rule="evenodd" d="M0 0V24H32V0H0Z" fill="white"/>
</mask>
<g mask="url(#mask0_270_67519)">
<rect width="32" height="4" fill="#272727"/>
<rect y="8" width="32" height="4" fill="#D74800"/>
<rect y="12" width="32" height="4" fill="#272727"/>
<rect y="20" width="32" height="4" fill="#D74800"/>
<path fill-rule="evenodd" clip-rule="evenodd" d="M16 18C19.3137 18 22 15.3137 22 12C22 8.68629 19.3137 6 16 6C12.6863 6 10 8.68629 10 12C10 15.3137 12.6863 18 16 18Z" fill="#F7FCFF"/>
<path fill-rule="evenodd" clip-rule="evenodd" d="M13.6796 8.32864L12.6216 8.67579L13.6796 8.76637C13.6796 8.76637 13.8507 9.18472 13.6796 9.5113C13.6362 9.59421 13.5242 9.70043 13.3812 9.83601C12.961 10.2345 12.2733 10.8867 12.2733 11.9462C12.2733 13.3663 15.0139 14.0102 15.0139 14.0102V14.6849C15.0139 14.6849 15.332 14.8824 13.5171 14.8824C11.9433 14.8824 12.0417 15.4799 12.0956 15.8069C12.1039 15.857 12.1111 15.9008 12.1111 15.935C12.1111 16.1933 12.8675 15.6768 13.2216 15.1626C13.408 14.892 14.1886 14.9063 14.9897 14.9805C15.0529 14.9864 15.6371 16.2237 15.13 16.8629C14.9169 17.1314 14.1812 17.1664 13.7216 17.1883C13.4872 17.1994 13.3247 17.2071 13.3397 17.2407C13.351 17.2658 13.4897 17.2576 13.6911 17.2455C13.9426 17.2305 14.292 17.2097 14.614 17.2407C14.6629 17.2454 14.4733 17.4099 14.2817 17.5762C14.0844 17.7475 13.8848 17.9207 13.941 17.9234C14.0043 17.9263 14.3738 17.7216 14.7096 17.5356C14.9874 17.3817 15.242 17.2407 15.2808 17.2407C15.5342 17.2407 15.763 17.2719 15.9636 17.2994C16.299 17.3452 16.5559 17.3803 16.7176 17.2407C16.7674 17.1977 16.4787 17.1285 16.1843 17.058C15.8811 16.9854 15.5718 16.9113 15.6206 16.8629C15.8993 16.5863 15.7829 16.0064 15.6911 15.5498C15.65 15.3449 15.6138 15.1648 15.6206 15.048C15.6444 14.6332 16.0831 14.8508 16.428 15.0218C16.579 15.0967 16.7119 15.1626 16.7842 15.1626C17.4372 15.1626 16.6264 14.3367 16.1813 13.8834C16.1423 13.8437 16.1061 13.8068 16.074 13.7736C15.8477 13.5399 16.0064 13.5713 16.3653 13.6423C16.6391 13.6964 17.0294 13.7736 17.454 13.7736C18.435 13.7736 19.151 13.4549 18.9022 12.592C18.7381 12.0227 17.8397 11.829 16.901 11.6266C16.4169 11.5222 15.9221 11.4155 15.5118 11.2538C14.5024 10.8559 14.5538 10.2758 14.5974 9.78534C14.6058 9.68994 14.614 9.59793 14.614 9.5113C14.614 8.97929 15.5118 8.32864 15.5118 8.32864C15.5118 8.32864 15.1021 7.64209 14.4226 7.64209C13.7431 7.64209 13.6796 8.32864 13.6796 8.32864ZM15.5278 14.5765V14.0747C15.5278 14.0747 15.9474 14.0609 16.0945 14.4138C16.2417 14.7668 15.5278 14.5765 15.5278 14.5765Z" fill="#272727"/>
<path fill-rule="evenodd" clip-rule="evenodd" d="M13.0769 6.71128L14.0905 7.91322L14.6154 7.78976L14.3636 6.57642L13.0769 6.71128Z" fill="#D74800"/>
<path fill-rule="evenodd" clip-rule="evenodd" d="M14.3928 6.42064L14.4581 8.22769L15.3236 8.01473L15.6922 6.83122L14.3928 6.42064Z" fill="#FFD018"/>
<path fill-rule="evenodd" clip-rule="evenodd" d="M13.577 9.43892C13.7682 9.43892 13.9231 9.28781 13.9231 9.10142C13.9231 8.91502 13.7682 8.76392 13.577 8.76392C13.3858 8.76392 13.2308 8.91502 13.2308 9.10142C13.2308 9.28781 13.3858 9.43892 13.577 9.43892Z" fill="#D74800"/>
<path fill-rule="evenodd" clip-rule="evenodd" d="M15.7765 6.7592L14.7688 7.96608L14.9815 8.46156L16.1327 8.00296L15.7765 6.7592Z" fill="#D74800"/>
<path fill-rule="evenodd" clip-rule="evenodd" d="M18.1187 15.8931C18.1187 15.8931 19.8911 15.1013 19.8911 13.994C19.8911 12.8867 17.0131 11.6805 17.0131 11.6805C17.0131 11.6805 15.3202 12.068 16.0833 12.5865C16.8463 13.105 17.8687 13.3042 17.8687 13.994C17.8687 14.6838 18.1487 15.3415 17.5809 15.3415C17.0131 15.3415 18.1187 15.8931 18.1187 15.8931Z" fill="#D74800"/>
<path fill-rule="evenodd" clip-rule="evenodd" d="M15.5616 11.4781C15.5616 11.4781 14.9347 11.5883 14.9645 11.6901C15.0468 11.9716 15.9039 12.3382 16.2775 12.592C17.0405 13.1105 17.764 13.0523 18.3022 12.7148C18.8404 12.3774 15.5616 11.4781 15.5616 11.4781Z" fill="#FFFDFF"/>
</g>
</g>
<defs>
<clipPath id="clip0_270_67519">
<rect width="32" height="24" fill="white"/>
</clipPath>
</defs>
</svg>

<svg width="32" height="24" fill="none" xmlns="http://www.w3.org/2000/svg">
  <mask id="a" maskUnits="userSpaceOnUse" x="0" y="0" width="32" height="24">
    <path fill="#fff" d="M0 0h32v24H0z"/>
  </mask>
  <g mask="url(#a)">
    <path fill-rule="evenodd" clip-rule="evenodd" d="M0 0v24h32V0H0z" fill="#FECA00"/>
    <mask id="b" maskUnits="userSpaceOnUse" x="0" y="0" width="32" height="24">
      <path fill-rule="evenodd" clip-rule="evenodd" d="M0 0v24h32V0H0z" fill="#fff"/>
    </mask>
    <g mask="url(#b)">
      <path fill="#272727" d="M0 0h32v4H0z"/>
      <path fill="#D74800" d="M0 8h32v4H0z"/>
      <path fill="#272727" d="M0 12h32v4H0z"/>
      <path fill="#D74800" d="M0 20h32v4H0z"/>
      <path fill-rule="evenodd" clip-rule="evenodd" d="M16 18a6 6 0 100-12 6 6 0 000 12z" fill="#F7FCFF"/>
      <path fill-rule="evenodd" clip-rule="evenodd" d="M13.68 8.329l-1.058.347 1.058.09s.17.419 0 .745c-.044.083-.156.19-.299.325-.42.399-1.108 1.05-1.108 2.11 0 1.42 2.74 2.064 2.74 2.064v.675s.319.197-1.496.197c-1.574 0-1.475.598-1.421.925a.87.87 0 01.015.128c0 .258.756-.258 1.11-.772.187-.271.968-.257 1.769-.183.063.006.647 1.244.14 1.883-.213.268-.949.303-1.408.325-.235.011-.397.02-.382.053.011.025.15.017.351.005.252-.015.601-.036.923-.005.049.004-.14.169-.332.335-.198.171-.397.345-.341.347.063.003.433-.201.769-.387.277-.154.532-.295.57-.295.254 0 .483.03.684.058.335.046.592.081.754-.058.05-.043-.24-.113-.534-.183-.303-.073-.612-.147-.563-.195.278-.277.162-.857.07-1.313-.041-.205-.077-.385-.07-.502.023-.415.462-.197.807-.026.151.075.284.14.356.14.653 0-.158-.825-.603-1.279l-.107-.11c-.226-.233-.068-.202.291-.13.274.053.664.13 1.089.13.981 0 1.697-.318 1.448-1.181-.164-.57-1.062-.763-2.001-.965-.484-.105-.979-.212-1.39-.373-1.009-.398-.957-.978-.914-1.469a2.96 2.96 0 00.017-.274c0-.532.898-1.182.898-1.182s-.41-.687-1.09-.687c-.679 0-.742.687-.742.687zm1.848 6.247v-.501s.42-.014.566.339c.148.353-.566.162-.566.162z" fill="#272727"/>
      <path fill-rule="evenodd" clip-rule="evenodd" d="M13.077 6.711l1.014 1.202.524-.123-.251-1.214-1.287.135z" fill="#D74800"/>
      <path fill-rule="evenodd" clip-rule="evenodd" d="M14.393 6.42l.065 1.808.866-.213.368-1.184-1.3-.41z" fill="#FFD018"/>
      <path fill-rule="evenodd" clip-rule="evenodd" d="M13.577 9.439a.342.342 0 00.346-.338.342.342 0 00-.346-.337.342.342 0 00-.346.337c0 .187.155.338.346.338zm2.2-2.679l-1.008 1.206.213.496 1.15-.459-.356-1.244zm2.342 9.133s1.772-.792 1.772-1.899-2.878-2.313-2.878-2.313-1.693.387-.93.905c.763.519 1.786.718 1.786 1.408s.28 1.348-.288 1.348c-.568 0 .538.551.538.551z" fill="#D74800"/>
      <path fill-rule="evenodd" clip-rule="evenodd" d="M15.562 11.478s-.627.11-.598.212c.083.282.94.648 1.313.902.764.518 1.487.46 2.025.123.538-.338-2.74-1.237-2.74-1.237z" fill="#FFFDFF"/>
    </g>
  </g>
</svg>
